X:1
T:Volgete in vano
T:Benedetto Ferrari
T:Source : Musiche Varie a voce sola---Libro primo---Venetia---B.Magni---1633. Editor : André Vierendeels (02/01/17).
T:Notes : Original clefs : C4, F4 Figures in BC are notated in original print Original note values have been halved in 3-beat measures m22 in BC : second "C" notated as "D" in original print
T:Volgete in vano
T:©
T:©
T:©
C:Benedetto Ferrari
Z:©
%%score 1 2
L:1/8
Q:1/4=110
M:4/4
K:C
V:1 treble-8 nm="Tenor" snm="T"
V:2 bass nm="MusicXML Part"
V:1
 z4 z EGA | A2 B4 B2 | e4 cBA^G | ^G2 A4 A2 | z2 z E ^FGAB | B2 c4 c2 | z ddd d4 | c8 | %8
w: Vol- ge- te'in|va- * no,|Pe- re- gri- ni e-|ran- * ti|ver la de- ser- t'A-|ra- * bia|i pa- siel co-|re|
w: Fac- ci- an|pur pom- pa|del- le sue ba- *|le- * ne,|e de suoi mo- stri'à|que- st'il- ti|e quel- li del-|la|
w: In van si|glo- ri- a|lo sple- ta- ti in|fer- * no,|con Ge- ri- o- ni,|e sfi- gni,|Hi- dri'e Ce- ra-|ste|
 z2 z G TE2- E/D/ E/^F/ | ^F/ G2 A/B/^c/ d4 | B4 z dcB | B8- | B4 z B2 c/d/ | e3 B B4 | A8 | %15
w: per mo _ stri mi _|ra _ che di fu- ro-|re o d'im- pie-|ta|_ pa- si- no'a|fli'al- tri'a- van|ti,|
w: va- sta _ Am phi- *|tri- * te'i flut- ti fel-|li de- le spie-|ta-|te, e per- fi-|de Si- re-|ne,|
w: di do- * gli'a- prir _|v- ran- * gni si va-|ste per in- ghio-|trir|_ chi spie- g'il|ciel su- per-|no,|
[M:6/4] z2 c2 c2 B2 B2 A2 | A6 A2 B2 ^c2 | d6 B2 e2 e2 | d2 d2 c2 c6 | B2 d2 e2 f6 | d6 e2 d2 e2 | %21
w: ah non si puo tro-|var se- ra piu|cru- da, ah non|si puo tro- var|se- ra piu cru-|da, che bel- la|
w: ah non si puo ve-|der mo- stro piu|fie- ro, ah non|si puo ve- der|mo- stro piu fie-|ro, che bel- la|
w: ah non si puo tro-|var pe- na piu'a-|cer- ba, ah non|si puo tro- var|pe- na piu'a- cer-|bo, che bel- la|
 c4 A4 B2 c2 | d6- d4 A2 | A6 G6 | z6 c2 B2 c2 | A6 A2 A2 A2 | A12- | A12 | TA4 ^G2 !fermata!A6 |] %29
w: Don- na di pie-|ta _ de'i-|gnu- da|che bel- la|Don- na di pie-|ta|_|de'i- gnu- da.|
w: Don- na con un|co- * re'al-|tiie- ro,|che bel- la|Don- na con un|co-||re'al- tie- ro.|
w: Don- na ri- gi-|da,e _ su-|per- ba,|che bel- la|Do- na ri- gi|da,'e|_|su- per- ba.|
V:2
"^BC" A,,8- | A,,8- | A,,8- | E,,8 |"^-natural" E,,8 |"^-natural" E,,8 |"^6""^5""^4 3" F,,4 G,,4 | %7
 C,8 | C,8 | G,,8- | G,,8- | G,,4- G,,G,,F,,E,, |"^#" E,,8 | %13
"^6""^4""^6""^5""^4  #" E,,2 D,,2 E,,4 | A,,8 |[M:6/4] A,6 G,6 | F,6 E,6 | D,6 G,2 C,4 | %18
 B,,6 A,,6 |"^6" G,,6 F,,6 |"^6" G,2 F,2 G,2 E,6 |"^6""^7" F,2 E,2 F,2 D,2 C,2 C,2 | %22
"^7 6""^6""^5" B,,6 C,6 |"^4   #" D,6 G,,6 | G,2 F,2 G,2 E,6 |"^7" F,2 E,2 F,2 D,2 C,2 B,,2 | %26
"^-natural""^6""^4" A,,2 G,,2 F,,2 E,,2 D,,2 E,,2 |"^6""^7" D,,6 E,,6 | %28
"^4     #" E,,6 !fermata!A,,6 |] %29

